X:259
T:Reel 259
M:4/4
K:Gmaj
L:1/8
Bc|d2Bd efge|dBGB AGEG|d2Bd gfgb|afdf g2 (3gfe |d2Bd efge|dBGB AGEG|d2Bd efgb|afdf g2|d2|g2gf gbag|fdad bdad|g2gf gbag|fdef g2dB|g2gf gbag|fdad bdad|bdc'b abge|dBAB G2|
